app/dist/common/images/arabian-food-and-dairy-factories-co.svg

<svg height="18" viewBox="0 0 18 18" width="18" xmlns="http://www.w3.org/2000/svg"><path d="m0 0h18v18h-18z" fill="#f0f3fa"/><path d="m8.3 8-1.87 6h1.4l.85-2.5h2.05l.27-1h-2.02l.57-1.5h2.6l.35-1z" fill="#f9cd04"/><path d="m7.9 7-1.9 6h1.41l.86-2.5h2.04l.23-1h-2.01l.49-1.5h2.65l.33-1z" fill="#0e3a79"/><path d="m13 3s-1.24.72-2.84.72c-2.14 0-3.52.98-4.16 2.28 0 0 .85-.67 1.45-.94 1.24-.55 2.1-.36 3.44-.36 1.25 0 2.11-1.7 2.11-1.7z" fill="#143169"/><path d="m6 6s.43-.26 1.15-.31c1.37-.1 1.9 0 3.1 0 1.9 0 2.75-1.69 2.75-1.69s-.87.64-2.13.64h-1.83c-1.43 0-2.24.54-3.04 1.36z" fill="#d8080f"/></svg>

<!-- by TradingView --><svg width="18" height="18" viewBox="0 0 18 18" xmlns="http://www.w3.org/2000/svg"><path fill="#F0F3FA" d="M0 0h18v18H0z"/><path d="m8.3 8-1.87 6h1.4l.85-2.5h2.05l.27-1H8.98L9.55 9h2.6l.35-1H8.3Z" fill="#F9CD04"/><path d="M7.9 7 6 13h1.41l.86-2.5h2.04l.23-1H8.53L9.02 8h2.65L12 7H7.9Z" fill="#0E3A79"/><path d="M13 3s-1.24.72-2.84.72C8.02 3.72 6.64 4.7 6 6c0 0 .85-.67 1.45-.94 1.24-.55 2.1-.36 3.44-.36C12.14 4.7 13 3 13 3Z" fill="#143169"/><path d="M6 6s.43-.26 1.15-.31c1.37-.1 1.9 0 3.1 0C12.15 5.69 13 4 13 4s-.87.64-2.13.64H9.04C7.61 4.64 6.8 5.18 6 6Z" fill="#D8080F"/></svg>
